X:1
T: The Ladies' Pantalettes
C:
R:Reel
Q: 232
K:G
M:4/4
L:1/8
Bd cA G2 G2|AB cA d2 cA|Bd cA G2 g2|fd cA dB cA|
Bd cA G2 G2|AB cA d2 cA|Bd cA G2 g2|fd cA BG G2|
|:fg af g2 af|gb ag fd d2|fg af gb ag|fd cA BG G2|
fg af g2 af|gb ag fd d2|de fg ab ag|fd cA BG Ac:|
Bd cA G2 G2|AB cA d2 cA|Bd cA G2 g2|fd cA dB cA|
Bd cA G2 G2|AB cA d2 cA|Bd cA G2 g2|fd cA BG G2||
